!!!!SEGMENT: pl-kk--kk-i-14--014_gorczycki-grzegorz-gerwazy-ave-mundi-spes-maria.krn
!!!id: 17xx:2202
!!!COM: Gorczycki, Grzegorz Gerwazy
!!!OTL: Ave Mundi spes Maria
!!!PDT:
!!!SMS-siglum: PL-Kk
!!!SMS-shelfmark: Kk.I.14
!!!NIFC-rismID: 1001154408
!!!URL-scan: http://repozytorium.nifc.pl/skany/pl-kk-nut--i-14
!!!ONB-nifc: UWAGA: tylko B rip, skan 0009. Następny utwór: Christe sanctorum decus
!!!SMS-variant:
!!!SMS-altvar:
**kern	**text	**text	**text	**text	**text
*I"Baſso Ripieno.	*	*	*	*	*
*I'B rip	*	*	*	*	*
*clefF4	*	*	*	*	*
*k[]	*	*	*	*	*
*M3/2	*	*	*	*	*
=1-	=1-	=1-	=1-	=1-	=1-
!LO:TX:t=P:problem:kreska pseudotaktowa	!	!	!	!	!
!LO:TX:a:i:t=De B. V. Maria	!	!	!	!	!
00.r	.	.	.	.	.
=2-	=2-	=2-	=2-	=2-	=2-
.	.	.	.	.	.
=3-	=3-	=3-	=3-	=3-	=3-
.	.	.	.	.	.
=4-	=4-	=4-	=4-	=4-	=4-
.	.	.	.	.	.
=5-	=5-	=5-	=5-	=5-	=5-
*2\right	*	*	*	*	*
2rBB	.	.	.	.	.
2C/	A-	San-	An-	Me	E-
!LO:TX:t=P:problem:kreska pseudotaktowa	!	!	!	!	!
2G\	-ve	-cta	-ge-	ha-	-ja
=6-	=6-	=6-	=6-	=6-	=6-
2BBn/	mun-	Pa-	-lo-	-be-	Ro-
!LO:TX:t=P:problem:kreska pseudotaktowa	!	!	!	!	!
1C	-di	-rens	-rum	-to	-sa
=7-	=7-	=7-	=7-	=7-	=7-
2r	.	.	.	.	.
2E\	Spes	Je-	Im-	ex-	si-
!LO:TX:t=P:problem:kreska pseudotaktowa	!	!	!	!	!
2F\	Ma-	-su	-pe-	-cu-	-ne
=8-	=8-	=8-	=8-	=8-	=8-
1G	-ri-	X-	-ra-	-ſa-	spi-
!LO:TX:t=P:problem:kreska pseudotaktowa	!	!	!	!	!
2GG/	-a	-ti	-trix	-tum	-na
=9-	=9-	=9-	=9-	=9-	=9-
2r	.	.	.	.	.
2G\	a-	e-	Pec-	a-	pec-
!LO:TX:t=P:problem:kreska pseudotaktowa	!	!	!	!	!
2F\	-ve	-le-	-ca-	-pud	-ca-
=10-	=10-	=10-	=10-	=10-	=10-
4E\	mi-	-cta	.	X-	-to-
4D\	-tis	.	.	.	.
2E\	.	.	-to-	-tum	.
!LO:TX:t=P:problem:kreska pseudotaktowa	!	!	!	!	!
2C/	.	So-	-rum	.	-rum
=11-	=11-	=11-	=11-	=11-	=11-
4F\	a-	-la	Con-	Tu-	me-
4E\	.	.	.	.	.
4F\	.	.	.	.	.
4G\	.	.	.	.	.
4A\	.	.	.	.	.
!LO:TX:t=P:problem:kreska pseudotaktowa	!	!	!	!	!
4E\	.	.	.	.	.
=12-	=12-	=12-	=12-	=12-	=12-
2F\	.	.	-so-	-um	-di-
2D/	.	.	.	.	.
!LO:TX:t=P:problem:kreska pseudotaktowa	!	!	!	!	!
2C/	.	.	.	.	.
!LO:LB:g=original	!	!	!	!	!
=13-	=13-	=13-	=13-	=13-	=13-
2A\	-ve	fu-	-la-	Na-	-ci-
2G\	pi-	-i-	-trix	.	.
!LO:TX:t=P:problem:kreska pseudotaktowa	!	!	!	!	!
2GG/	.	.	.	.	.
=14-	=14-	=14-	=14-	=14-	=14-
2C/	-a,	-sti,	.	-tum,	-na
2r	.	.	.	.	.
!LO:TX:t=P:problem:kreska pseudotaktowa	!	!	!	!	!
2r	.	.	.	.	.
=15-	=15-	=15-	=15-	=15-	=15-
!LO:TX:t=P:problem:kreska pseudotaktowa	!	!	!	!	!
00.r	.	.	.	.	.
=16-	=16-	=16-	=16-	=16-	=16-
.	.	.	.	.	.
=17-	=17-	=17-	=17-	=17-	=17-
.	.	.	.	.	.
=18-	=18-	=18-	=18-	=18-	=18-
.	.	.	.	.	.
=19-	=19-	=19-	=19-	=19-	=19-
2r	.	.	.	.	.
2F\	Vir-	et	in	et	ut
!LO:TX:t=P:problem:kreska pseudotaktowa	!	!	!	!	!
2E\	-go	la-	pec-	fu-	me
=20-	=20-	=20-	=20-	=20-	=20-
2D\	dul-	-cta-	-ca-	-ro-	Sal-
2E\	-cis	-re	-tis	-rem	-vet
!LO:TX:t=P:problem:kreska pseudotaktowa	!	!	!	!	!
2F\	et	mo-	jam	ex-	à
=21-	=21-	=21-	=21-	=21-	=21-
2G\	se-	-do	fae-	-pa-	pro-
2A\	-re-	mi-	-ten-	-ve-	-cel-
!LO:TX:t=P:problem:kreska pseudotaktowa	!	!	!	!	!
2AA/	.	.	-tem	.	-la
=22-	=22-	=22-	=22-	=22-	=22-
2D/	-na	-ro,	.	-sco,	.
2r	.	.	.	.	.
!LO:TX:t=P:problem:kreska pseudotaktowa	!	!	!	!	!
2r	.	.	.	.	.
=23-	=23-	=23-	=23-	=23-	=23-
2r	.	.	.	.	.
2F\	Vir-	et	in	et	ut
!LO:TX:t=P:problem:kreska pseudotaktowa	!	!	!	!	!
2B\	-go	la-	pec-	Fu-	me
=24-	=24-	=24-	=24-	=24-	=24-
2.A\	dul-	-cta-	-ca-	-ro-	sal-
4G\	-cis	-re	-tis	-rem	-vet
!LO:TX:t=P:problem:kreska pseudotaktowa	!	!	!	!	!
2F\	et	mo-	jam	ex-	à
=25-	=25-	=25-	=25-	=25-	=25-
2B\	se-	-do	fae-	-pa-	pro-
2c\	-re-	mi-	-ten-	-ve-	-cel-
!LO:TX:t=P:problem:kreska pseudotaktowa	!	!	!	!	!
2C/	.	.	.	.	.
!LO:LB:g=original	!	!	!	!	!
=26-	=26-	=26-	=26-	=26-	=26-
(>4F\	-na	-ro	-tem	-sco	-la
4E\	.	.	.	.	.
4F\	.	.	.	.	.
4G\)	.	.	.	.	.
4A\	.	.	.	.	.
!LO:TX:t=P:problem:kreska pseudotaktowa	!	!	!	!	!
4B\	.	.	.	.	.
=27-	=27-	=27-	=27-	=27-	=27-
4c\	Vir-	mo-	.	.	.
(>4d\	.	.	.	.	.
4c\	.	.	.	.	.
4B\	.	.	.	.	.
4A\)	-go	.	.	.	.
!LO:TX:t=P:problem:kreska pseudotaktowa	!	!	!	!	!
4G,>\	.	.	.	.	.
=28-	=28-	=28-	=28-	=28-	=28-
2F\	dul-	.	jam	ex-	sal-
2G\	-cis	-do	.	.	-vet
!LO:TX:t=P:problem:kreska pseudotaktowa	!	!	!	!	!
2A\	et	.	.	.	à
=29-	=29-	=29-	=29-	=29-	=29-
2B\	se-	mi-	fae-	-pa-	pro-
2c\	-re-	-ro.	-ten-	-ve-	-cel-
!LO:TX:t=P:problem:kreska pseudotaktowa	!	!	!	!	!
2C/	-na.	.	-tem.	-sco.	-la
=30-	=30-	=30-	=30-	=30-	=30-
!LO:TX:B:a:i:t=De Ssctis Angelis	!	!	!	!	!
0F;	.	.	.	.	.
=-	=-	=-	=-	=-	=-
*-	*-	*-	*-	*-	*-
!!!RDF**kern: > = above
!!!RDF**kern: < = below
!!!ENC: Katarzyna Serwa
!!!END: 2021-07-02
!!!EED: Antoni Szymański
!!!EST: 2021-07-18
